SVG/info.svg

<?xml version="1.0" encoding="utf-8"?>
<!-- Generated by IcoMoon.io -->
<!DOCTYPE svg PUBLIC "-//W3C//DTD SVG 1.1//EN" "http://www.w3.org/Graphics/SVG/1.1/DTD/svg11.dtd">
<svg version="1.1" xmlns="http://www.w3.org/2000/svg" xmlns:xlink="http://www.w3.org/1999/xlink" width="5" height="14" viewBox="0 0 5 14">
<path fill="#444444" d="M5 10.5v1q0 0.203-0.148 0.352t-0.352 0.148h-4q-0.203 0-0.352-0.148t-0.148-0.352v-1q0-0.203 0.148-0.352t0.352-0.148h0.5v-3h-0.5q-0.203 0-0.352-0.148t-0.148-0.352v-1q0-0.203 0.148-0.352t0.352-0.148h3q0.203 0 0.352 0.148t0.148 0.352v4.5h0.5q0.203 0 0.352 0.148t0.148 0.352zM4 1.5v1.5q0 0.203-0.148 0.352t-0.352 0.148h-2q-0.203 0-0.352-0.148t-0.148-0.352v-1.5q0-0.203 0.148-0.352t0.352-0.148h2q0.203 0 0.352 0.148t0.148 0.352z"></path>
</svg>

<svg xmlns="http://www.w3.org/2000/svg" viewBox="0 0 5 14"><path d="M5 10.5v1q0 .203-.148.352T4.5 12h-4q-.203 0-.352-.148T0 11.5v-1q0-.203.148-.352T.5 10H1V7H.5q-.203 0-.352-.148T0 6.5v-1q0-.203.148-.352T.5 5h3q.203 0 .352.148T4 5.5V10h.5q.203 0 .352.148T5 10.5zm-1-9V3q0 .203-.148.352T3.5 3.5h-2q-.203 0-.352-.148T1 3V1.5q0-.203.148-.352T1.5 1h2q.203 0 .352.148T4 1.5z" /></svg>
